white/cdt.svg

<!-- Generated by IcoMoon.io -->
<svg version="1.1" xmlns="http://www.w3.org/2000/svg" width="32" height="32" viewBox="0 0 32 32">
<title>cdt</title>
<path fill="#fff" d="M16 32c-8.837 0-16-7.163-16-16s7.163-16 16-16 16 7.163 16 16-7.163 16-16 16zM27 16.030c-0.025-6.059-4.872-10.973-10.88-11.030v2.802c3.944-0.002 7.316 2.863 7.984 6.782h-3.89c0.15 0.458 0.228 0.935 0.234 1.416-0.001 0.482-0.080 0.96-0.234 1.416h3.89c-0.659 3.925-4.036 6.794-7.984 6.782v2.802c2.886 0 5.653-1.155 7.694-3.212 1.969-1.989 3.186-4.726 3.186-7.748 0-0.004 0-0.008 0-0.012v0.001zM19.746 18.389c-0.773 1.215-2.113 2.010-3.639 2.010-0.864 0-1.669-0.255-2.343-0.694l0.017 0.010c-2.011-1.295-2.6-3.988-1.316-6.015 0.773-1.216 2.113-2.010 3.639-2.010 0.864 0 1.669 0.255 2.342 0.694l-0.017-0.010c0.522 0.35 0.97 0.8 1.316 1.327h3.072c-1.136-3.305-4.472-5.3-7.893-4.72s-5.925 3.567-5.925 7.064 2.505 6.484 5.925 7.064c3.421 0.58 6.757-1.414 7.893-4.72z"></path>
</svg>

<svg height="32" viewBox="0 0 32 32" width="32" xmlns="http://www.w3.org/2000/svg"><path d="M16 32C7.163 32 0 24.837 0 16S7.163 0 16 0s16 7.163 16 16-7.163 16-16 16zm11-15.97C26.975 9.971 22.128 5.057 16.12 5v2.802c3.944-.002 7.316 2.863 7.984 6.782h-3.89c.15.458.228.935.234 1.416-.001.482-.08.96-.234 1.416h3.89c-.659 3.925-4.036 6.794-7.984 6.782V27c2.886 0 5.653-1.155 7.694-3.212A11.014 11.014 0 0027 16.029zm-7.254 2.359a4.299 4.299 0 01-5.965 1.326c-2.011-1.295-2.6-3.988-1.316-6.015a4.299 4.299 0 015.965-1.327c.522.35.97.8 1.316 1.327h3.072c-1.136-3.305-4.472-5.3-7.893-4.72C11.505 9.56 9 12.547 9 16.044s2.505 6.484 5.925 7.064c3.421.58 6.757-1.414 7.893-4.72z" fill="#fff"/></svg>
